images/cvlinks/skype.svg

<svg width="13" height="12" viewBox="0 0 13 12" fill="none" xmlns="http://www.w3.org/2000/svg">
    <path id="Vector"
          d="M11.606 7.00238C11.6676 6.66399 11.7007 6.31809 11.7007 5.97218C11.7007 5.20516 11.5503 4.46071 11.2541 3.76137C10.9683 3.0846 10.5577 2.477 10.0359 1.95513C9.51834 1.4363 8.90488 1.02307 8.22961 0.738438C7.52877 0.442161 6.78582 0.291766 6.01881 0.291766C5.65786 0.291766 5.29541 0.326357 4.94349 0.394034C4.45653 0.135992 3.91394 0.00073121 3.36284 0C2.46498 0 1.61976 0.35042 0.985096 0.985086C0.671917 1.29666 0.423608 1.66722 0.254523 2.07534C0.0854386 2.48347 -0.00106625 2.92106 9.91898e-06 3.36283C9.91898e-06 3.93433 0.147397 4.4968 0.422619 4.99311C0.366973 5.31495 0.336894 5.64432 0.336894 5.97218C0.336894 6.73919 0.487289 7.48364 0.783567 8.18298C1.06932 8.85976 1.47839 9.46735 2.00026 9.98922C2.52213 10.5111 3.12973 10.9202 3.8065 11.2059C4.50734 11.5022 5.25029 11.6526 6.0173 11.6526C6.35118 11.6526 6.68506 11.6225 7.01292 11.5639C7.51674 11.8481 8.08523 12 8.66726 12C9.56512 12 10.4103 11.6511 11.045 11.0149C11.6812 10.3802 12.0301 9.53503 12.0301 8.63717C12.0316 8.06567 11.8842 7.50169 11.606 7.00238ZM6.04137 9.45231C4.02307 9.45231 3.1207 8.45971 3.1207 7.71676C3.1207 7.33475 3.40194 7.06855 3.78996 7.06855C4.65322 7.06855 4.43064 8.30931 6.04137 8.30931C6.86704 8.30931 7.32273 7.86114 7.32273 7.40243C7.32273 7.12721 7.18738 6.8204 6.64295 6.68655L4.84723 6.23838C3.40194 5.87592 3.13875 5.09387 3.13875 4.35994C3.13875 2.83494 4.57502 2.26194 5.92406 2.26194C7.16632 2.26194 8.63117 2.94924 8.63117 3.86364C8.63117 4.25617 8.29127 4.48327 7.90326 4.48327C7.16632 4.48327 7.30168 3.46359 5.81728 3.46359C5.08035 3.46359 4.67278 3.79747 4.67278 4.27422C4.67278 4.75097 5.2548 4.90287 5.76013 5.01867L7.08962 5.31345C8.54544 5.6383 8.91391 6.48803 8.91391 7.28813C8.91391 8.52588 7.96191 9.45231 6.04137 9.45231Z"
          fill="#2F495E"/>
</svg>

<svg width="13" height="12" viewBox="0 0 13 12" fill="none" xmlns="http://www.w3.org/2000/svg"><path id="Vector" d="M11.606 7.002a5.64 5.64 0 00-.352-3.241 5.658 5.658 0 00-1.218-1.806A5.652 5.652 0 008.23.738 5.713 5.713 0 004.944.394 3.385 3.385 0 003.362 0C2.465 0 1.62.35.985.985A3.343 3.343 0 000 3.363c0 .571.147 1.134.423 1.63a5.638 5.638 0 00.36 3.19A5.652 5.652 0 002 9.989a5.65 5.65 0 001.807 1.217 5.643 5.643 0 003.206.358A3.365 3.365 0 008.667 12c.898 0 1.743-.349 2.378-.985.636-.635.985-1.48.985-2.378a3.346 3.346 0 00-.424-1.635zm-5.565 2.45c-2.018 0-2.92-.992-2.92-1.735 0-.382.28-.648.669-.648.863 0 .64 1.24 2.251 1.24.826 0 1.282-.448 1.282-.907 0-.275-.136-.582-.68-.715l-1.796-.449C3.402 5.876 3.14 5.094 3.14 4.36c0-1.525 1.436-2.098 2.785-2.098 1.242 0 2.707.687 2.707 1.602 0 .392-.34.62-.728.62-.737 0-.601-1.02-2.086-1.02-.737 0-1.144.333-1.144.81 0 .477.582.629 1.087.745l1.33.294c1.455.325 1.824 1.175 1.824 1.975 0 1.238-.952 2.164-2.873 2.164z" fill="#2F495E"/></svg>
